X: 4064
T: HIGHLAND FLING
C: Carl Volti
R: Strathspey.
%R: strathspey
B: James Kerr "Merry Melodies" v.4 p.10 #64
Z: 2016 John Chambers <jc:trillian.mit.edu>
M: C
L: 1/8
K: D
|:\
vA>vBuA>uF (A<d)d2 | (B<d)d2 (A<d)d2 |\
A>BA>F (A<d)d2 | g>ef>d e>d (B<d) ::\
(f<a)a2 (f<a)a2 |
a>ba>g f>ef>d |\
[1 (g<b)b2 g<bb2 | g>ag>f e>dc>A :|\
[2 b>ga>f g>ef>d | e>c (3(ABc) d2d2 |]

%%sep 1 1 500
%%sep 1 1 500

